!!!OTL: 661. Trost in der Ferne.
!!!ARE: Europa, Mitteleuropa, Deutschland
!!!SCT: E0567
!!!TXL: @@DE
!!!YEM: Copyright 1995, estate of Helmut Schaffrath.
**kern	**text
*ICvox	*
*M4/4	*
*met(c)	*
*k[b-]	*
*F:	*
!LO:TX:a:t=Wehmüthig.	!
!LO:TX:a:t=Neueres Volkslied nach 1840.	!
{8c	1._Von
8f	dir
8a	ge-
=1	=1
4cc	-ſchie-
4cc	-den
8r	.
8cc	bin
8ff	ich
8gg	bei
=2	=2
(4ff	dir,
4ee)	.
8r}	.
{8b-/	wo
8b-/	du
8a	auch
=3	=3
8g/L	wei-
8eeJ	.
4ee	-leſt
8r	.
8dd	biſt
8cc	du
8b-	bei
=4	=4
2a	mir.
8r}	.
{8f	Von
8ff	dir
8ee	ʒu
=5	=5
4ee	laſ-
4dd	-ſen
8r	.
8dd	ver-
8ff	-mag
8dd	ich
=6	=6
2cc	nicht,
8r}	.
{8cc	o
8b-	du
8a	mein
=7	=7
8g/L	Al-
8ddJ	.
4dd	-les
8r	.
8dd^	mein
8cc^	Le-
8b-^	-bens-
=8	=8
2a^	-licht.
8r}	.
{8f	Von
8ff	dir
8ee	ʒu
=9	=9
4ee	laſ-
4dd	-ſen
8r	.
8dd	ver-
8ff	-mag
8dd	ich
=10	=10
2cc	nicht,
8r}	.
{8cc	o
8b-	du
8a	mein
=11	=11
8g	Al-
8dd	.
4dd	-les
8r	.
8dd^	mein
8cc^	Le-
8b-^	-bens-
=12	=12
2a^	-licht.
8r}	.
==	==
!!!AGN: Liebes - Lied, Trost
!!!ONB: ESAC (Essen Associative Code) Database: ERK1
!!!AMT: simple quadruple
!!!AIN: vox
!!!EED: Helmut Schaffrath
!!!EEV: 1.0
!!!GTL: Liebeslieder [Neuere (aus dem 18. bis 19. Jahrh.) - Liebeslust]
!!!URL-scan: https://rosdok.uni-rostock.de/mcrviewer/recordIdentifier/rosdok_ppn745177662/iview2/phys_0397.iview2?x=-128.77276441889308&y=1985.6255115824752&scale=0.5870222003877485&rotation=0&layout=singlePageLayout
!!!ENC: Anna Maria Matuszewska
!!!EEV: 2024/11/12
*-	*-
